X:1
T:O Believe Him
T:Ira David Sankey
T:O Believe Him
T:Public Domain
T:Public Domain
C:Ira David Sankey
Z:Public Domain
%%score ( 1 2 ) ( 3 4 )
L:1/8
M:4/4
K:G
V:1 treble 
V:2 treble 
V:3 bass 
V:4 bass 
V:1
 [B,D]3 [CE] [B,D]2 [B,E]2 | [DG]3 [DA] [EG]2 [CE]2 | [B,D]3 [CE] [B,D]2 [DG]2 | %3
w: 1.~Hear the voice of|Je- sus plead- ing,|With His Fa- ther|
w: 2.~Come to Je- sus,|hum- bly kneel- ing;|May His voice like|
w: 3.~Oh, ye wea- ry,|faint and dy- ing,|Who for rest are|
w: 4.~Hear the bless- èd|pro- cla- ma- tion,|Pre- cious words of|
 [DA]2 [DB]2 (cB) [DA]2 | [DB]3 [Ec] [DB]2 [FA]2 | [EG]3 [EA] [EG]2 [CE]2 | [B,D]3 [CE] D2 [Ec]2 | %7
w: in- ter- ced- * ing;|you still His love|un- heed- ing, Turn|from Him who died|
w: mu- sic steal- * ing,|with- in some bur-|ied feel- ing, While|a- gain it pleads|
w: vain- ly sigh- * ing,|ger not, the hours|are fly- ing; Look|to Him who died|
w: con- so- la- * tion|don, life and full|sal- va- tion Je-|sus of- fers now|
 [DB]2 [FA]2 G4 ||"^Refrain" [Gd]3 [GB] (ed) [GB]2 | [GB]3 G (AG) [CE]2 | [B,D]3 [CE] [DG]2 [DA]2 | %11
w: you? * *||||
w: you. O be-|Him, O be- * lieve|In your heart * with|ceive Him; Oh, how|
w: you. * *||||
w: you. * *||||
 [DB]3 [FA] [GB]2 [Gd]2 | [Gd]3 [GB] (ed) [GB]2 | [GB]3 G (AG) [CE]2 | [B,D]3 [CE] [B,G]2 [Ec]2 | %15
w: ||||
w: can you slight and|grieve Him, When * He|His life for * you?||
w: ||||
w: ||||
 [DB]2 [DA]2 [DG]4 |] %16
w: |
w: |
w: |
w: |
V:2
 x8 | x8 | x8 | x4 D2 x2 | x8 | x8 | x4 D2 x2 | x4 G4 || x4 G2 x2 | x3 G E2 x2 | x8 | x8 | %12
w: |||Can|||for||||||
w: |||Touch|||for|lieve|Him,|joy re-|||
w: |||Lin-|||for||||||
w: |||Par-|||to||||||
 x4 G2 x2 | x3 G E2 x2 | x8 | x8 |] %16
w: ||||
w: gave||||
w: ||||
w: ||||
V:3
 [G,,G,]3 [G,,G,] [G,,G,]2 [G,,G,]2 | [B,,G,]3 [B,,G,] [C,G,]2 [C,G,]2 | %2
 [G,,G,]3 [G,,G,] [G,,G,]2 [B,,G,]2 | [D,F,]2 [D,G,]2 (A,G,) [D,F,]2 | G,3 G, G,2 [D,C]2 | %5
 [E,B,]3 [E,B,] [C,C]2 [C,G,]2 | [G,,G,]3 [G,,G,] [B,,G,]2 [C,G,]2 | [D,G,]2 [D,C]2 [G,,G,B,]4 || %8
 [G,B,]3 [G,D] (CB,) [G,C]2 | [G,D]3 [B,,D] [C,C]2 [C,G,]2 | [G,,G,]3 [G,,G,] [B,,G,]2 [D,F,]2 | %11
 G,3 [D,D] [G,D]2 [G,B,]2 | [G,B,]3 [G,D] (CB,) [G,D]2 | [G,D]3 [B,,D] [C,C]2 [C,G,]2 | %14
 G,3 G, G,2 [C,G,]2 | [D,G,]2 [D,C]2 [G,,B,]4 |] %16
V:4
 x8 | x8 | x8 | x4 D,2 x2 | G,3 G, G,2 x2 | x8 | x8 | x8 || x4 G,2 x2 | x8 | x8 | G,3 x5 | %12
 x4 G,2 x2 | x8 | G,3 G, G,2 x2 | x8 |] %16

